bank-outline.svg

<svg fill="currentColor" viewBox="0 0 24 24"><path d="M6.5 10h-2v7h2zm6 0h-2v7h2zm8.5 9H2v2h19zm-2.5-9h-2v7h2zm-7-6.74L16.71 6H6.29zm0-2.26L2 6v2h19V6z"/></svg>

<svg  viewBox="0 0 24 24" fill="currentColor"><path  d="M6.5,10H4.5V17H6.5V10M12.5,10H10.5V17H12.5V10M21,19H2V21H21V19M18.5,10H16.5V17H18.5V10M11.5,3.26L16.71,6H6.29L11.5,3.26M11.5,1L2,6V8H21V6L11.5,1Z"/></svg>
